X: 25112
T: Mairedelia
R: reel
M: 4/4
K: Dmajor
Addc d2AG|FDA,D FGAG|=c2dc cAGA|d3B cAFA|
dA~A2 efed|d=cAG GECE|D2FA B=cAG|GECE DEFG:|
|:fefg a2ga|e=c~c2 eA^ce|defg adfa|gece d2fg|
abag efge|Bd=cA GE=CE|D2FA d=cAF|GECE DEFA:|

